dhis-2/dhis-support/dhis-support-system/src/main/resources/SVGs/hiv_self_test_negative.svg

<?xml version="1.0" encoding="UTF-8" standalone="no"?>
<!-- Created with Inkscape (http://www.inkscape.org/) -->
<svg id="svg8" xmlns:rdf="http://www.w3.org/1999/02/22-rdf-syntax-ns#" xmlns="http://www.w3.org/2000/svg" xmlns:osb="http://www.openswatchbook.org/uri/2009/osb" height="48" width="48" version="1.1" xmlns:cc="http://creativecommons.org/ns#" viewBox="0 0 12.7 12.7" xmlns:dc="http://purl.org/dc/elements/1.1/">
 <title id="title4753">UIO-icon</title>
 <metadata id="metadata5">
  <rdf:RDF>
   <cc:Work rdf:about="">
    <dc:format>image/svg+xml</dc:format>
    <dc:type rdf:resource="http://purl.org/dc/dcmitype/StillImage"/>
    <dc:title>UIO-icon</dc:title>
    <dc:creator>
     <cc:Agent>
      <dc:title>Joaquín Urbano</dc:title>
     </cc:Agent>
    </dc:creator>
    <dc:rights>
     <cc:Agent>
      <dc:title>GPL</dc:title>
     </cc:Agent>
    </dc:rights>
   </cc:Work>
  </rdf:RDF>
 </metadata>
 <g id="layer1" fill="#333" transform="translate(0,-284.3)">
  <path id="rect1251" d="m0 0v48h48v-48zm25.953 4.0039c0.20914-0.08505 2.9846 3.0173 2.9844 4.7812 0.0002222 1.7639-1.3239 3.1919-2.9609 3.1914-1.6365-0.00033033-2.9631-1.4281-2.9629-3.1914-0.00021921-1.7633 2.9395-4.7812 2.9395-4.7812zm0.0625 0.69141c-0.72302 0.79735-2.5018 2.8742-2.4883 3.998 0.012648 1.0511 0.87935 2.8084 2.4531 2.7617 1.5577 0.050954 2.3949-1.4298 2.4199-2.5195 0.048-1.3637-1.724-3.5188-2.385-4.2402zm0.64062 4.2344c0.50482 0 0.91406 0.40924 0.91406 0.91406 1e-8 0.50482-0.40924 0.91406-0.91406 0.91406s-0.91406-0.40924-0.91406-0.91406c-1e-8 -0.50482 0.40924-0.91406 0.91406-0.91406zm-3.9023 1.4805c-0.00014975 0.038055 0.005649 0.24212 0.003906 0.53516 1.2076 2.0926 3.9075 2.3382 5.9277 0.25586 0.02256-0.013931 0.035184-0.031661 0.054688-0.046875-0.010332 0.013961-0.02191 0.034643-0.03125 0.046875 0.88522 1.2923 0.36835 3.1529-1.8457 4.4805l-1.8027 0.91406-4.8418 2.5234-11.041 5.6914 0.24219 0.45312 10.596-5.4766c2.6289 4.8182 3.3145 5.2368 0.85742 6.4531l-8.666 4.4746 0.24219 0.45312 8.2012-4.248c2.22 3.1015 2.7546 4.6098 1.2773 5.541l-0.28516 0.14844-8.4355 4.3555 0.24219 0.45312 7.9707-4.1289c0.3711 0.73566 1.3104 1.6929 1.9277 2.5273 0.71938 1.1203-0.20465 1.9088-1.1074 2.4766l-9.854 5.707h-8.385v-23.33l5.0586-2.6113 13.695-7.1348c-0.00047655-0.16057-0.00052551-0.38007 0-0.51367zm-18.755 4.295c1.4304 0.6168 2.8761 1.6982 4.3613 3.1289l-4.3613 2.254v-0.604zm21.736 4.9121h0.74023v3.9375h5.0098v-3.9375h0.74609v8.7676h-0.74609v-4.2031h-5.009v4.2031h-0.74023zm8.8809 0h0.74219v8.7676h-0.74219zm2.1934 0h0.80664l2.7578 7.6836 0.048828 0.1875 0.052734-0.1875 2.7598-7.6836h0.8125l-3.2637 8.7676h-0.71094z" fill-rule="evenodd" transform="matrix(.26458 0 0 .26458 0 284.3)"/>
 </g>
</svg>

<svg width="48" height="48" viewBox="0 0 48 48" fill="none" xmlns="http://www.w3.org/2000/svg">
<path fill-rule="evenodd" clip-rule="evenodd" d="M0 0V47.9994H47.9994V0H0ZM25.9527 4.00385C26.1618 3.9188 28.9372 7.02111 28.937 8.78499C28.9373 10.5489 27.6132 11.9768 25.9762 11.9763C24.3397 11.976 23.0131 10.5483 23.0133 8.78499C23.0131 7.02171 25.9528 4.00385 25.9528 4.00385H25.9527ZM26.0152 4.69525C25.2922 5.49259 23.5134 7.56941 23.5269 8.6932C23.5396 9.74429 24.4062 11.5016 25.98 11.4549C27.5377 11.5058 28.3748 10.0251 28.3998 8.9354C28.4478 7.57171 26.6759 5.41664 26.0149 4.69525H26.0152ZM26.6558 8.9296C27.1606 8.9296 27.5698 9.33883 27.5698 9.84365C27.5698 10.3485 27.1606 10.7577 26.6558 10.7577C26.151 10.7577 25.7417 10.3485 25.7417 9.84365C25.7417 9.33883 26.151 8.9296 26.6558 8.9296ZM22.7535 10.4101C22.7534 10.4481 22.7592 10.6522 22.7574 10.9452C23.965 13.0378 26.6649 13.2834 28.6851 11.2011C28.7076 11.1872 28.7202 11.1694 28.7398 11.1542C28.7294 11.1682 28.7178 11.1889 28.7085 11.2011C29.5937 12.4934 29.0769 14.354 26.8628 15.6815L25.0602 16.5956L20.2184 19.1189L9.17755 24.8103L9.41974 25.2634L20.0156 19.7869C22.6445 24.605 23.3301 25.0236 20.873 26.2399L12.2071 30.7144L12.4493 31.1675L20.6504 26.9196C22.8704 30.0211 23.405 31.5293 21.9277 32.4605L21.6425 32.609L13.2071 36.9644L13.4493 37.4175L21.4199 33.2887C21.791 34.0243 22.7303 34.9816 23.3476 35.8159C24.067 36.9362 23.143 37.7247 22.2402 38.2925L12.3863 43.9994H4.00144V20.6697L9.05998 18.0585L22.7548 10.9238C22.7543 10.7632 22.7543 10.5437 22.7548 10.4101H22.7535ZM3.99877 14.705C5.42915 15.3218 6.87483 16.4032 8.36001 17.8339L3.99877 20.0879V19.4839V14.705ZM25.7345 19.6171H26.4747V23.5545H31.4845V19.6171H32.2305V28.3846H31.4845V24.1815H26.4755V28.3846H25.7353L25.7345 19.6171ZM34.6153 19.6171H35.3575V28.3846H34.6153V19.6171ZM36.8087 19.6171H37.6153L40.3731 27.3006L40.4219 27.4881L40.4746 27.3006L43.2344 19.6171H44.0469L40.7832 28.3846H40.0723L36.8087 19.6171Z" fill="#333333"/>
</svg>
